static/img/favicon.svg

<svg width="80" height="88" viewBox="0 0 80 88" fill="none" xmlns="http://www.w3.org/2000/svg">
<path fill-rule="evenodd" clip-rule="evenodd" d="M79.2 24.8073C79.2 22.8199 78.1319 20.9865 76.4048 20.0091L42.3048 0.712418C40.6262 -0.237473 38.5738 -0.237472 36.8952 0.712419L2.79519 20.0091C1.06807 20.9865 0 22.8199 0 24.8073V63.1927C0 65.1801 1.06807 67.0135 2.79519 67.9909L36.8952 87.2876C38.5738 88.2375 40.6262 88.2375 42.3048 87.2876L76.4048 67.9909C78.1319 67.0135 79.2 65.1801 79.2 63.1927V24.8073ZM57.1771 61.1805C61.3996 61.1805 64.0472 56.6106 61.953 52.937L44.6023 22.4995C42.4912 18.7961 37.1616 18.7961 35.0505 22.4995L17.6997 52.937C15.6056 56.6106 18.2532 61.1805 22.4757 61.1805H57.1771Z" fill="white"/>
</svg>

<svg width="80" height="88" viewBox="0 0 80 88" xmlns="http://www.w3.org/2000/svg"><path fill-rule="evenodd" clip-rule="evenodd" d="M79.2 24.807a5.513 5.513 0 0 0-2.795-4.798L42.305.712a5.49 5.49 0 0 0-5.41 0L2.795 20.01A5.512 5.512 0 0 0 0 24.807v38.386a5.512 5.512 0 0 0 2.795 4.798l34.1 19.297a5.49 5.49 0 0 0 5.41 0l34.1-19.297a5.513 5.513 0 0 0 2.795-4.798V24.807ZM57.177 61.18c4.223 0 6.87-4.57 4.776-8.243L44.603 22.5c-2.112-3.704-7.441-3.704-9.553 0L17.7 52.937c-2.094 3.674.553 8.244 4.776 8.244h34.701Z" fill="000"/></svg>
